X: 37595
T: Smith Of Chilliechassie, The
R: reel
M: 4/4
K: Amixolydian
|AAAB e2Ae|d2Gd BBBG|AAAB e2Ae|d2GB AAAG|
AAAB e2Ae|d2Gd BBBG|AAAB e2AB|g2dB AAAG|
|:g2fg aefd|g2fg BBBG|g2fg aefd|1 g2dB AAAG:|2 egdB AAAG|
|:AAdA BAdA|AAdA BBBG|AAdA BAdA|BedB AAAG:|
g2fe e<aae|g2fg BBBG|g2fe f>aae|gedB AAAG|
g2fe eaae|g2fg BBBG|g2fe fgaf|egdB AAAG||
AAAB A2eA|AAAd BBBG|AAAB A2eA|BedB AAAG|
AAAB A2eA|dBBd BBBG|g2ea e2Ad|B2GB AAAG||
g2fe a2af|egdg BBBG|g2fe a2af|egdB AAAG|
g2fe a2af|egdg BBBG|e2AB A2eA|egdB AAAG||

